X:142
T:The Killavil fancy
T:The farewell reel
R:Reel
O:Ireland
B:Bulmer and Sharpley
B:Ceol Rince 1 p82
D:Pierre Schreyer - New Canadian Waltz
D:The Barra MacNeils - Traditional Album
D:Music at Matt Molloy's
D:Frankie Gavin & Alec Finn
S:My arrangement from various sources
Z:Transcription, arrangement, chords:Mike Long
M:C|
L:1/8
K:G
"G"DGBG "D"A2BA|"C"GE~E2 cEGE|"G"DGBG "D"A2BA|"C"GEED EFGA|\
"G"B2dB "D"A2BA|
"C"GE~E2 cEGE|"G"DGBG "D"A2BA|"C"GEDB, "G"DGG2|]\
"G"GABd "C"e2ge|"D"dB~B2 dBAB|"G"G2Bd "C"edge|
"D"dBAB GEDE|\
"G"G2Bd "C"edge|"D"dB~B2 dega|"G"(3(bag) ag egfa|"C"gedB "D"ABGA|]
